X:149
T:Rose without Rue
N:"Moderate"
B:O'Neill's 149
Z:Transcribed by henrik.norbeck@mailbox.swipnet.se
M:C
L:1/8
K:G
D|DGGG GFED|EFGE D2 Bc|dBcA BGFG|AFGE D2 Bc|
dBcA BGFG|AFGE D3 C|B,DEF AGFGA|BGAF G2||
GA|BGEE E2 FG|AFDD D2 DC|B,DEF AGFGA|B2 AG A2 GA|
BGEE E2 FG|AFDD D3 C|B,DEF AGFGA|BGAF G3||
